static/assets/images/networks/kaia.svg

<svg width="256" height="256" viewBox="0 0 256 256" fill="none" xmlns="http://www.w3.org/2000/svg">
<path d="M0 128C0 57.8431 57.3075 0 128 0C198.693 0 256 57.8431 256 128C256 198.157 198.693 256 128 256C57.3075 256 0 198.157 0 128Z" fill="#BFF009"/>
<path d="M124.331 89.9791C124.331 84.3018 128.965 79.6761 134.65 79.6761H153.115V54.6087H134.65C115.089 54.6087 99.2264 70.4473 99.2264 89.9791C99.2264 95.0764 100.313 99.9217 102.256 104.294C87.0629 110.706 76.9749 124.33 74.6255 141.572C71.8813 160.501 79.477 180.921 96.0208 190.786C110.786 200.07 133.871 199.457 146.342 186.578V195.127H172.04V100.283H134.661C128.975 100.283 124.331 95.6574 124.331 89.9791ZM146.912 125.361V149.168C146.912 162.321 136.232 172.975 123.069 172.975C109.907 172.975 99.2264 162.31 99.2264 149.168C99.2264 136.026 109.907 125.361 123.069 125.361H146.912Z" fill="#040404"/>
</svg>

<svg xmlns="http://www.w3.org/2000/svg" fill="none" viewBox="0 0 256 256"><path fill="#BFF009" d="M0 128C0 57.843 57.308 0 128 0s128 57.843 128 128-57.307 128-128 128C57.308 256 0 198.157 0 128"/><path fill="#040404" d="M124.331 89.98c0-5.678 4.634-10.304 10.319-10.304h18.465V54.61H134.65c-19.561 0-35.424 15.838-35.424 35.37 0 5.097 1.087 9.943 3.03 14.315-15.193 6.412-25.281 20.036-27.63 37.278-2.745 18.929 4.851 39.349 21.395 49.214 14.765 9.284 37.85 8.671 50.321-4.208v8.549h25.698v-94.844h-37.379c-5.686 0-10.33-4.626-10.33-10.304m22.581 35.381v23.807c0 13.153-10.68 23.807-23.843 23.807s-23.843-10.665-23.843-23.807 10.681-23.807 23.843-23.807z"/></svg>
